images/009-car-1-1.svg

<svg width="79" height="79" viewBox="0 0 79 79" fill="none" xmlns="http://www.w3.org/2000/svg">
<path d="M15.3389 51.4252C14.5149 51.4252 13.7095 51.6695 13.0244 52.1273C12.3393 52.585 11.8053 53.2357 11.49 53.9969C11.1747 54.7582 11.0922 55.5958 11.2529 56.4039C11.4136 57.2121 11.8104 57.9544 12.3931 58.537C12.9757 59.1196 13.718 59.5164 14.5261 59.6772C15.3342 59.8379 16.1719 59.7554 16.9331 59.4401C17.6944 59.1248 18.345 58.5908 18.8028 57.9057C19.2606 57.2206 19.5049 56.4152 19.5049 55.5912C19.5037 54.4866 19.0645 53.4277 18.2834 52.6466C17.5024 51.8656 16.4434 51.4263 15.3389 51.4252ZM15.3389 57.5971C14.9421 57.5971 14.5543 57.4794 14.2245 57.259C13.8946 57.0386 13.6375 56.7253 13.4857 56.3588C13.3339 55.9923 13.2942 55.589 13.3716 55.1999C13.4489 54.8108 13.64 54.4534 13.9205 54.1728C14.201 53.8923 14.5584 53.7013 14.9475 53.6239C15.3366 53.5465 15.74 53.5862 16.1065 53.738C16.473 53.8898 16.7863 54.1469 17.0067 54.4768C17.2271 54.8067 17.3447 55.1945 17.3447 55.5912C17.344 56.1229 17.1325 56.6326 16.7564 57.0086C16.3804 57.3845 15.8706 57.5959 15.3389 57.5964V57.5971Z" fill="#8A1A10"/>
<path d="M63.6611 51.4252C62.8372 51.4252 62.0317 51.6695 61.3466 52.1273C60.6615 52.585 60.1276 53.2357 59.8122 53.9969C59.4969 54.7582 59.4144 55.5958 59.5752 56.4039C59.7359 57.2121 60.1327 57.9544 60.7153 58.537C61.2979 59.1196 62.0403 59.5164 62.8484 59.6772C63.6565 59.8379 64.4942 59.7554 65.2554 59.4401C66.0166 59.1248 66.6673 58.5908 67.1251 57.9057C67.5828 57.2206 67.8272 56.4152 67.8272 55.5912C67.826 54.4866 67.3867 53.4277 66.6057 52.6466C65.8247 51.8656 64.7657 51.4263 63.6611 51.4252ZM63.6611 57.5971C63.2644 57.5971 62.8766 57.4794 62.5467 57.259C62.2169 57.0386 61.9598 56.7253 61.808 56.3588C61.6561 55.9923 61.6164 55.589 61.6938 55.1999C61.7712 54.8108 61.9623 54.4534 62.2428 54.1728C62.5233 53.8923 62.8807 53.7013 63.2698 53.6239C63.6589 53.5465 64.0622 53.5862 64.4288 53.738C64.7953 53.8898 65.1085 54.1469 65.329 54.4768C65.5494 54.8067 65.667 55.1945 65.667 55.5912C65.6664 56.1229 65.4548 56.6327 65.0787 57.0086C64.7027 57.3845 64.1929 57.5959 63.6611 57.5964V57.5971Z" fill="#8A1A10"/>
<path d="M75.7701 44.1997C75.8709 44.0939 75.9492 43.9687 76.0002 43.8317C76.0513 43.6947 76.074 43.5488 76.0669 43.4028C76.0013 42.4938 75.8231 41.5965 75.5365 40.7314C74.9046 38.8359 72.9134 37.6111 70.4627 37.6111C68.9895 37.6111 66.3185 37.6015 65.0997 37.5969L62.6906 33.1754C61.0025 30.1485 58.5401 26.6934 54.4436 26.6934H24.8063C21.4684 26.6934 18.5059 28.9851 16.4617 33.1819L13.9467 37.6282C12.731 37.6258 10.0286 37.6159 8.53644 37.6159C6.08605 37.6159 4.09454 38.8384 3.4627 40.7338C3.17629 41.5984 2.99826 42.4952 2.93269 43.4037C2.92554 43.5541 2.94814 43.7044 2.99918 43.8461C3.05023 43.9877 3.12873 44.1179 3.23017 44.2292C3.32961 44.3387 3.44998 44.4273 3.58417 44.4895C3.71837 44.5518 3.86368 44.5866 4.01153 44.5918H4.01292L7.75801 44.5586C6.1254 45.801 5.07494 47.8629 5.07494 50.2599C5.07491 50.3029 5.07775 50.3458 5.08343 50.3884L6.81711 64.1292C6.84109 65.0704 7.18909 65.9746 7.80237 66.689C8.41565 67.4035 9.25665 67.8845 10.1834 68.0508V72.4526C10.1858 72.7887 10.2546 73.1211 10.3857 73.4306C10.5168 73.7401 10.7078 74.0207 10.9475 74.2563C11.1873 74.4918 11.4713 74.6777 11.783 74.8034C12.0948 74.929 12.4284 74.9918 12.7645 74.9883H17.2854C18.7006 74.9883 19.9041 73.8689 19.9041 72.4526V68.0449H59.0955V72.4526C59.0955 73.8689 60.299 74.9883 61.7147 74.9883H66.2356C66.5717 74.9917 66.9051 74.9288 67.2169 74.8032C67.5286 74.6775 67.8124 74.4916 68.0522 74.256C68.2919 74.0204 68.4828 73.7399 68.6139 73.4304C68.745 73.121 68.8138 72.7887 68.8162 72.4526V68.0371C69.7293 67.8613 70.5543 67.3771 71.153 66.6656C71.7517 65.9541 72.0878 65.0586 72.1051 64.1289L73.9182 50.3873C73.924 50.3404 73.9266 50.293 73.9261 50.2457C73.9261 47.8771 72.8228 45.7834 71.1466 44.5367L74.9886 44.5353C75.1348 44.5353 75.2795 44.5055 75.4138 44.4478C75.5482 44.3902 75.6694 44.3057 75.7701 44.1997ZM18.3593 34.2105C18.3702 34.191 18.3807 34.1826 18.3901 34.1626C19.354 32.1754 21.469 28.8535 24.8063 28.8535H54.4436C56.7936 28.8535 58.6957 30.4622 60.798 34.2314L65.751 43.3574H60.4294C60.2158 41.5989 59.3657 39.9795 58.0397 38.8049C56.7138 37.6303 55.0037 36.9817 53.2322 36.9817C51.4608 36.9817 49.7507 37.6303 48.4247 38.8049C47.0988 39.9795 46.2487 41.5989 46.0351 43.3574H13.2059L18.3593 34.2105ZM58.2469 43.3574H48.2176C48.4237 42.1771 49.0397 41.1073 49.9569 40.3363C50.8742 39.5654 52.034 39.1427 53.2322 39.1427C54.4305 39.1427 55.5903 39.5654 56.5075 40.3363C57.4248 41.1073 58.0407 42.1771 58.2469 43.3574ZM5.25485 42.3732C5.32247 42.049 5.4085 41.7289 5.51253 41.4145C5.8401 40.4316 7.0555 39.7713 8.53675 39.7713C9.63658 39.7713 11.3948 39.774 12.7293 39.7765L11.2684 42.3655L5.25485 42.3732ZM17.744 72.4526C17.744 72.6778 17.5099 72.8281 17.2846 72.8281H12.7645C12.712 72.8319 12.6593 72.8251 12.6095 72.8082C12.5597 72.7912 12.5138 72.7644 12.4746 72.7294C12.4353 72.6944 12.4035 72.6518 12.381 72.6043C12.3585 72.5567 12.3458 72.5051 12.3436 72.4526V68.0449H17.744V72.4526ZM66.6561 72.4526C66.6538 72.5051 66.6411 72.5567 66.6186 72.6043C66.5961 72.6518 66.5642 72.6944 66.525 72.7294C66.4857 72.7644 66.4398 72.7912 66.39 72.8082C66.3402 72.8251 66.2875 72.8319 66.235 72.8281H61.7141C61.4888 72.8281 61.2551 72.6778 61.2551 72.4526V68.0449H66.6554L66.6561 72.4526ZM71.7633 50.1854L69.948 63.9109C69.9417 63.9469 69.9385 63.9835 69.9386 64.0201C69.9377 64.2674 69.8877 64.5121 69.7917 64.74C69.6957 64.9678 69.5555 65.1745 69.3791 65.3478C69.2028 65.5212 68.9938 65.6579 68.7644 65.7501C68.5349 65.8423 68.2894 65.888 68.0421 65.8848H10.8799C10.6326 65.8881 10.387 65.8424 10.1575 65.7503C9.92792 65.6582 9.71889 65.5215 9.54249 65.3481C9.36608 65.1747 9.2258 64.968 9.12973 64.7401C9.03367 64.5122 8.98374 64.2674 8.98282 64.0201C8.9828 63.9801 8.97991 63.9402 8.97418 63.9007L7.23541 50.1727C7.26287 47.9064 8.72561 45.6055 11.17 45.4804C11.2308 45.4981 11.2931 45.5105 11.3561 45.5176H67.5263C67.5363 45.5176 67.5461 45.5042 67.5561 45.5042C69.8565 45.5042 71.7315 47.5938 71.7633 50.1854ZM67.6925 42.3779L66.2729 39.762C67.6053 39.7666 69.3646 39.7719 70.4618 39.7719C71.943 39.7719 73.1586 40.4323 73.486 41.4153C73.5903 41.7302 73.6765 42.0509 73.744 42.3758L67.6925 42.3779Z" fill="#8A1A10"/>
<path d="M25.2094 57.8612H53.7904C53.9618 57.8625 54.1309 57.8228 54.2837 57.7452C54.4365 57.6677 54.5685 57.5547 54.6686 57.4157C54.7687 57.2767 54.8341 57.1158 54.8593 56.9463C54.8844 56.7768 54.8686 56.6038 54.8131 56.4417L53.8276 53.5436C53.1503 51.5531 50.9731 49.9919 48.8691 49.9919H30.0531C27.9443 49.9919 25.7791 51.5642 25.125 53.5689L24.1827 56.4571C24.13 56.6187 24.1165 56.7904 24.1432 56.9582C24.17 57.126 24.2362 57.285 24.3365 57.4221C24.4368 57.5593 24.5682 57.6706 24.72 57.747C24.8718 57.8233 25.0395 57.8625 25.2094 57.8612ZM27.1786 54.2339C27.5419 53.1231 28.8843 52.1523 30.0531 52.1523H48.8691C50.043 52.1523 51.4044 53.1243 51.7824 54.2353L52.2823 55.7011H26.6982L27.1786 54.2339Z" fill="#8A1A10"/>
<path d="M57.5625 59.5586H22.3125C22.026 59.5586 21.7513 59.6724 21.5488 59.8749C21.3462 60.0775 21.2324 60.3522 21.2324 60.6387C21.2324 60.9251 21.3462 61.1998 21.5488 61.4024C21.7513 61.605 22.026 61.7188 22.3125 61.7188H57.5625C57.849 61.7188 58.1237 61.605 58.3263 61.4024C58.5288 61.1998 58.6426 60.9251 58.6426 60.6387C58.6426 60.3522 58.5288 60.0775 58.3263 59.8749C58.1237 59.6724 57.849 59.5586 57.5625 59.5586Z" fill="#8A1A10"/>
<path d="M41.0431 15.7579C40.8546 15.7579 40.6695 15.8072 40.506 15.9009C40.3425 15.9947 40.2064 16.1295 40.1111 16.2921L38.0329 19.84C37.7224 20.37 37.5574 20.9726 37.5545 21.5869C37.5516 22.2011 37.7109 22.8052 38.0163 23.3382C38.3218 23.8711 38.7625 24.3139 39.294 24.6219C39.8255 24.9299 40.4288 25.0921 41.0431 25.0921C41.6573 25.0921 42.2607 24.9299 42.7922 24.6219C43.3237 24.3139 43.7644 23.8711 44.0698 23.3382C44.3753 22.8052 44.5346 22.2011 44.5317 21.5869C44.5288 20.9726 44.3637 20.37 44.0533 19.84L41.975 16.2921C41.8798 16.1295 41.7437 15.9947 41.5802 15.9009C41.4167 15.8072 41.2315 15.7579 41.0431 15.7579ZM41.9825 22.5427C41.754 22.771 41.4502 22.9083 41.1279 22.9289C40.8056 22.9495 40.4868 22.852 40.2312 22.6545C39.9755 22.4571 39.8006 22.1733 39.7391 21.8562C39.6775 21.5392 39.7336 21.2105 39.8968 20.9318L41.0431 18.975L42.1894 20.9318C42.3378 21.1854 42.3981 21.4811 42.3606 21.7726C42.3232 22.0641 42.1902 22.335 41.9825 22.5428V22.5427Z" fill="#8A1A10"/>
<path d="M29.5649 15.7579C29.3765 15.7579 29.1913 15.8072 29.0278 15.9009C28.8643 15.9947 28.7282 16.1295 28.6329 16.2921L26.5546 19.84C26.2441 20.37 26.0791 20.9726 26.0762 21.5868C26.0733 22.2011 26.2327 22.8052 26.5381 23.3381C26.8436 23.871 27.2843 24.3138 27.8158 24.6218C28.3472 24.9297 28.9506 25.0919 29.5648 25.0919C30.1791 25.0919 30.7824 24.9297 31.3139 24.6218C31.8454 24.3138 32.2861 23.871 32.5915 23.3381C32.897 22.8052 33.0563 22.2011 33.0534 21.5868C33.0505 20.9726 32.8855 20.37 32.5751 19.84L30.4967 16.2921C30.4015 16.1295 30.2654 15.9947 30.1019 15.901C29.9384 15.8073 29.7533 15.758 29.5649 15.7579ZM30.5046 22.5428C30.2762 22.7713 29.9723 22.9088 29.6499 22.9294C29.3275 22.9501 29.0086 22.8526 28.7529 22.6551C28.4973 22.4576 28.3223 22.1737 28.2608 21.8566C28.1993 21.5394 28.2554 21.2107 28.4188 20.932L29.5651 18.9752L30.7115 20.932C30.8599 21.1856 30.9201 21.4812 30.8827 21.7727C30.8452 22.0641 30.7123 22.335 30.5046 22.5428Z" fill="#8A1A10"/>
<path d="M50.0538 24.0705C50.6536 24.6708 51.4515 25.0319 52.2983 25.0863C53.1451 25.1407 53.9827 24.8846 54.6542 24.3659C55.3258 23.8473 55.7854 23.1016 55.9468 22.2686C56.1083 21.4356 55.9606 20.5723 55.5314 19.8403L53.453 16.2922C53.3578 16.1296 53.2216 15.9948 53.0581 15.9011C52.8947 15.8074 52.7095 15.7581 52.5211 15.7581C52.3326 15.7581 52.1475 15.8074 51.984 15.9011C51.8205 15.9948 51.6843 16.1296 51.5891 16.2922L49.5107 19.8401C49.1208 20.5061 48.9626 21.2825 49.0609 22.0479C49.1592 22.8133 49.5084 23.5246 50.0538 24.0705ZM51.3743 20.9321L52.5207 18.9753L53.667 20.9321C53.7852 21.1339 53.8481 21.3634 53.8491 21.5973C53.8502 21.8312 53.7896 22.0612 53.6732 22.2641C53.5569 22.4671 53.3891 22.6357 53.1867 22.753C52.9843 22.8702 52.7546 22.932 52.5207 22.932C52.2868 22.932 52.057 22.8702 51.8546 22.753C51.6522 22.6357 51.4844 22.4671 51.3681 22.2641C51.2518 22.0612 51.1911 21.8312 51.1922 21.5973C51.1933 21.3634 51.2561 21.1339 51.3743 20.9321Z" fill="#8A1A10"/>
<path d="M35.7042 4.51304C35.609 4.35044 35.4728 4.21559 35.3094 4.12189C35.1459 4.02818 34.9607 3.97888 34.7723 3.97888C34.5838 3.97888 34.3987 4.02818 34.2352 4.12189C34.0717 4.21559 33.9356 4.35044 33.8403 4.51304L31.7621 8.06078C31.4516 8.5908 31.2866 9.19338 31.2837 9.80762C31.2808 10.4219 31.4402 11.026 31.7456 11.5589C32.0511 12.0918 32.4918 12.5346 33.0233 12.8426C33.5547 13.1505 34.1581 13.3127 34.7723 13.3127C35.3866 13.3127 35.9899 13.1505 36.5214 12.8426C37.0529 12.5346 37.4936 12.0918 37.7991 11.5589C38.1045 11.026 38.2638 10.4219 38.261 9.80762C38.2581 9.19338 38.093 8.5908 37.7826 8.06078L35.7042 4.51304ZM35.7118 10.7634C35.4834 10.9919 35.1796 11.1294 34.8571 11.15C34.5347 11.1707 34.2158 11.0732 33.9602 10.8757C33.7045 10.6782 33.5295 10.3944 33.468 10.0772C33.4065 9.76003 33.4627 9.43133 33.626 9.15259L34.7723 7.1958L35.9187 9.15259C36.0671 9.4062 36.1273 9.70184 36.0899 9.9933C36.0525 10.2848 35.9195 10.5556 35.7118 10.7634Z" fill="#8A1A10"/>
<path d="M48.2456 4.51304C48.1504 4.35044 48.0143 4.21559 47.8508 4.12189C47.6873 4.02818 47.5021 3.97888 47.3137 3.97888C47.1252 3.97888 46.9401 4.02818 46.7766 4.12189C46.6131 4.21559 46.477 4.35044 46.3817 4.51304L44.3033 8.06078C43.9929 8.5908 43.8279 9.19338 43.825 9.80762C43.8221 10.4219 43.9814 11.026 44.2869 11.5589C44.5923 12.0918 45.0331 12.5346 45.5645 12.8426C46.096 13.1505 46.6994 13.3127 47.3136 13.3127C47.9278 13.3127 48.5312 13.1505 49.0627 12.8426C49.5941 12.5346 50.0349 12.0918 50.3403 11.5589C50.6458 11.026 50.8051 10.4219 50.8022 9.80762C50.7993 9.19338 50.6343 8.5908 50.3239 8.06078L48.2456 4.51304ZM48.253 10.7634C48.0246 10.9919 47.7208 11.1294 47.3984 11.15C47.076 11.1707 46.7571 11.0732 46.5014 10.8757C46.2457 10.6782 46.0708 10.3944 46.0092 10.0772C45.9477 9.76003 46.0039 9.43133 46.1673 9.15259L47.3137 7.1958L48.46 9.15259C48.6084 9.4062 48.6686 9.70184 48.6312 9.9933C48.5937 10.2848 48.4608 10.5556 48.253 10.7634Z" fill="#8A1A10"/>
</svg>

<svg width="79" height="79" fill="none" xmlns="http://www.w3.org/2000/svg"><path d="M15.339 51.425a4.166 4.166 0 100 8.331 4.166 4.166 0 000-8.33zm0 6.172a2.006 2.006 0 110-4.01 2.006 2.006 0 010 4.01zm48.322-6.172a4.166 4.166 0 100 8.332 4.166 4.166 0 000-8.332zm0 6.172a2.006 2.006 0 110-4.01 2.006 2.006 0 010 4.01z" fill="#8A1A10"/><path d="M75.77 44.2a1.08 1.08 0 00.297-.797 11.016 11.016 0 00-.53-2.672c-.632-1.895-2.624-3.12-5.074-3.12-1.473 0-4.144-.01-5.363-.014l-2.41-4.422c-1.688-3.026-4.15-6.482-8.246-6.482H24.806c-3.338 0-6.3 2.292-8.344 6.489l-2.515 4.446c-1.216-.002-3.918-.012-5.41-.012-2.451 0-4.442 1.222-5.074 3.118a11.011 11.011 0 00-.53 2.67 1.145 1.145 0 00.651 1.085c.134.063.28.098.428.103l3.746-.033c-1.633 1.242-2.683 3.304-2.683 5.7 0 .044.003.087.008.13l1.734 13.74a4.09 4.09 0 003.366 3.922v4.402a2.554 2.554 0 002.582 2.535h4.52c1.416 0 2.62-1.12 2.62-2.535v-4.408h39.19v4.408c0 1.416 1.204 2.535 2.62 2.535h4.52a2.557 2.557 0 002.581-2.535v-4.416a4.056 4.056 0 003.29-3.908l1.812-13.742a.953.953 0 00.008-.141c0-2.369-1.103-4.463-2.78-5.71h3.843a1.077 1.077 0 00.781-.336zm-57.41-9.99c.01-.019.02-.027.03-.047.964-1.988 3.079-5.31 6.416-5.31h29.638c2.35 0 4.252 1.61 6.354 5.378l4.953 9.126h-5.322a7.25 7.25 0 00-14.394 0h-32.83l5.154-9.146zm39.887 9.147h-10.03a5.09 5.09 0 0110.03 0zm-52.992-.984a8.72 8.72 0 01.258-.959c.327-.982 1.543-1.643 3.024-1.643 1.1 0 2.858.003 4.192.005l-1.46 2.59-6.014.007zm12.489 30.08c0 .225-.234.375-.46.375h-4.52a.394.394 0 01-.42-.375v-4.408h5.4v4.408zm48.912 0a.396.396 0 01-.421.375h-4.52c-.226 0-.46-.15-.46-.375v-4.408h5.4l.001 4.408zm5.107-22.268l-1.815 13.726a.624.624 0 00-.01.11 1.872 1.872 0 01-1.896 1.864H10.88a1.873 1.873 0 01-1.897-1.865c0-.04-.003-.08-.009-.12L7.235 50.174c.028-2.267 1.49-4.568 3.935-4.693.06.018.123.03.186.038h56.17c.01 0 .02-.014.03-.014 2.3 0 4.175 2.09 4.207 4.681zm-4.07-7.807l-1.42-2.616c1.332.005 3.092.01 4.189.01 1.481 0 2.697.66 3.024 1.643.104.315.19.636.258.96l-6.052.003z" fill="#8A1A10"/><path d="M25.21 57.861h28.58a1.071 1.071 0 001.023-1.42l-.985-2.897c-.678-1.99-2.855-3.552-4.959-3.552H30.053c-2.109 0-4.274 1.572-4.928 3.577l-.942 2.888a1.072 1.072 0 001.026 1.404zm1.969-3.627c.363-1.11 1.705-2.082 2.874-2.082H48.87c1.174 0 2.535.972 2.913 2.083l.5 1.466H26.698l.48-1.467zm30.384 5.325h-35.25a1.08 1.08 0 100 2.16h35.25a1.08 1.08 0 100-2.16zm-16.52-43.801a1.08 1.08 0 00-.932.534l-2.078 3.548a3.488 3.488 0 106.02 0l-2.078-3.548a1.08 1.08 0 00-.932-.534zm.94 6.785a1.33 1.33 0 01-2.086-1.611l1.146-1.957 1.146 1.957a1.33 1.33 0 01-.206 1.61zm-12.418-6.785a1.08 1.08 0 00-.932.534l-2.078 3.548a3.488 3.488 0 106.02 0l-2.078-3.548a1.08 1.08 0 00-.932-.534zm.94 6.785a1.328 1.328 0 01-2.086-1.611l1.146-1.957 1.146 1.957a1.33 1.33 0 01-.206 1.61zm19.549 1.527a3.489 3.489 0 005.477-4.23l-2.078-3.548a1.08 1.08 0 00-1.864 0l-2.078 3.548a3.49 3.49 0 00.543 4.23zm1.32-3.138l1.147-1.957 1.146 1.957a1.328 1.328 0 11-2.293 0zM35.704 4.513a1.08 1.08 0 00-1.864 0l-2.078 3.548a3.488 3.488 0 106.02 0l-2.078-3.548zm.008 6.25a1.328 1.328 0 01-2.086-1.61l1.146-1.957 1.147 1.957a1.33 1.33 0 01-.207 1.61zm12.534-6.25a1.08 1.08 0 00-1.864 0l-2.079 3.548a3.49 3.49 0 106.02 0l-2.077-3.548zm.007 6.25a1.328 1.328 0 01-2.086-1.61l1.147-1.957 1.146 1.957a1.33 1.33 0 01-.207 1.61z" fill="#8A1A10"/></svg>
